src/icons/sun-cloud-wind.svg

<?xml version="1.0" encoding="UTF-8" standalone="no"?><svg viewBox="0 0 32 32" xmlns="http://www.w3.org/2000/svg" xmlns:xlink="http://www.w3.org/1999/xlink" xml:space="preserve" fill-rule="evenodd" clip-rule="evenodd" stroke-linejoin="round" stroke-miterlimit="2" fill="currentColor"><g transform="translate(.896 1.728)"><path d="M24.832 15.904c1.056.736 1.728 1.952 1.728 3.264-.064 2.08-1.824 3.84-4 3.84h-1.024a.894.894 0 0 1-.896-.896c0-.48.416-.896.896-.896h1.024c1.184 0 2.144-.96 2.144-2.144 0-.832-.48-1.6-1.248-1.952-.384-.16-.576-.576-.512-.96.032-.256.064-.48.064-.704a4.14 4.14 0 0 0-4.128-4.128c-1.28 0-2.464.576-3.232 1.568.16.096.32.224.48.32a.92.92 0 0 1 .256 1.248.92.92 0 0 1-1.248.256c-.352-.224-.832-.512-1.312-.672a5 5 0 0 0-.704-.064 3.646 3.646 0 0 0-3.648 3.648.894.894 0 0 1-.896.896c-.384 0-.704-.256-.832-.608a.85.85 0 0 1-.096-.384 5.42 5.42 0 0 1 2.56-4.608c-.384-.64-.48-1.216-.48-1.888 0-2.208 1.792-4 4-4a3.97 3.97 0 0 1 3.776 2.688c.448-.096.896-.16 1.376-.16 3.264 0 5.952 2.656 5.952 5.952zm-11.744-3.808c.288 0 .608.032.864.096A6.3 6.3 0 0 1 15.84 10.4a2.23 2.23 0 0 0-2.112-1.568 2.21 2.21 0 0 0-2.208 2.208c0 .512.064.736.256 1.024a.7.7 0 0 1 .096.16c.384-.064.8-.128 1.216-.128m4.384 6.592c0 1.12-.928 2.048-2.048 2.048H4.544a.894.894 0 0 1-.896-.896c0-.48.416-.896.896-.896h10.88a.25.25 0 0 0 .256-.256c0-.16-.096-.256-.256-.256a.894.894 0 0 1-.896-.896c0-.48.416-.896.896-.896 1.12 0 2.048.928 2.048 2.048m.672 2.528c1.12 0 2.048.928 2.048 2.048s-.928 2.048-2.048 2.048a.894.894 0 0 1-.896-.896c0-.48.416-.896.896-.896a.25.25 0 0 0 .256-.256c0-.16-.096-.256-.256-.256H7.264a.894.894 0 0 1-.896-.896c0-.48.416-.896.896-.896zM13.728 5.952a.894.894 0 0 1-.896-.896v-.928c0-.512.416-.896.896-.896s.896.416.896.896v.928a.894.894 0 0 1-.896.896M8.864 7.456l-.64-.64a.91.91 0 0 1 0-1.28.91.91 0 0 1 1.28 0l.64.64a.91.91 0 0 1 0 1.28c-.192.16-.416.256-.64.256s-.448-.096-.64-.256m-2.048 4.48a.894.894 0 0 1-.896-.896c0-.48.416-.896.896-.896h.928c.512 0 .896.416.896.896s-.384.896-.896.896zm11.136-4.224c-.224 0-.448-.096-.64-.256a.91.91 0 0 1 0-1.28l.64-.64a.91.91 0 0 1 1.28 0 .91.91 0 0 1 0 1.28l-.64.64c-.192.16-.416.256-.64.256"/></g></svg>

<?xml version="1.0" encoding="UTF-8" standalone="no"?>
<!DOCTYPE svg PUBLIC "-//W3C//DTD SVG 1.1//EN" "http://www.w3.org/Graphics/SVG/1.1/DTD/svg11.dtd">
<svg width="100%" height="100%" viewBox="0 0 32 32" version="1.1" xmlns="http://www.w3.org/2000/svg" xmlns:xlink="http://www.w3.org/1999/xlink" xml:space="preserve" xmlns:serif="http://www.serif.com/" style="fill-rule:evenodd;clip-rule:evenodd;stroke-linejoin:round;stroke-miterlimit:2;">
    <g transform="matrix(1,0,0,1,0.896,1.728)">
        <path d="M17.472,18.688C17.472,19.808 16.544,20.736 15.424,20.736L4.544,20.736C4.032,20.736 3.648,20.32 3.648,19.84C3.648,19.36 4.064,18.944 4.544,18.944L15.424,18.944C15.552,18.944 15.68,18.848 15.68,18.688C15.68,18.528 15.584,18.432 15.424,18.432C14.912,18.432 14.528,18.016 14.528,17.536C14.528,17.056 14.944,16.64 15.424,16.64C16.544,16.64 17.472,17.568 17.472,18.688ZM18.144,21.216C19.264,21.216 20.192,22.144 20.192,23.264C20.192,24.384 19.264,25.312 18.144,25.312C17.632,25.312 17.248,24.896 17.248,24.416C17.248,23.936 17.664,23.52 18.144,23.52C18.272,23.52 18.4,23.424 18.4,23.264C18.4,23.104 18.304,23.008 18.144,23.008L7.264,23.008C6.752,23.008 6.368,22.592 6.368,22.112C6.368,21.632 6.784,21.216 7.264,21.216L18.144,21.216Z"/>
    </g>
    <g transform="matrix(1,0,0,1,0.896,1.728)">
        <path d="M24.832,15.904C25.888,16.64 26.56,17.856 26.56,19.168C26.496,21.248 24.736,23.008 22.56,23.008L21.536,23.008C21.024,23.008 20.64,22.592 20.64,22.112C20.64,21.632 21.056,21.216 21.536,21.216L22.56,21.216C23.744,21.216 24.704,20.256 24.704,19.072C24.704,18.24 24.224,17.472 23.456,17.12C23.072,16.96 22.88,16.544 22.944,16.16C22.976,15.904 23.008,15.68 23.008,15.456C23.008,13.184 21.152,11.328 18.88,11.328C17.6,11.328 16.416,11.904 15.648,12.896C15.808,12.992 15.968,13.12 16.128,13.216C16.544,13.504 16.64,14.048 16.384,14.464C16.096,14.88 15.552,14.976 15.136,14.72C14.784,14.496 14.304,14.208 13.824,14.048C13.6,14.016 13.344,13.984 13.12,13.984C11.104,13.984 9.472,15.616 9.472,17.632C9.472,18.144 9.056,18.528 8.576,18.528C8.192,18.528 7.872,18.272 7.744,17.92C7.68,17.792 7.648,17.664 7.648,17.536C7.648,15.584 8.672,13.888 10.208,12.928C9.824,12.288 9.728,11.712 9.728,11.04C9.728,8.832 11.52,7.04 13.728,7.04C15.456,7.04 16.96,8.128 17.504,9.728C17.952,9.632 18.4,9.568 18.88,9.568C22.144,9.568 24.832,12.224 24.832,15.52L24.832,15.904ZM13.088,12.096C13.376,12.096 13.696,12.128 13.952,12.192C14.464,11.456 15.104,10.848 15.84,10.4C15.552,9.472 14.688,8.832 13.728,8.832C12.512,8.832 11.52,9.824 11.52,11.04C11.52,11.552 11.584,11.776 11.776,12.064C11.808,12.096 11.84,12.16 11.872,12.224C12.256,12.16 12.672,12.096 13.088,12.096ZM13.728,5.952C13.216,5.952 12.832,5.536 12.832,5.056L12.832,4.128C12.832,3.616 13.248,3.232 13.728,3.232C14.208,3.232 14.624,3.648 14.624,4.128L14.624,5.056C14.624,5.568 14.208,5.952 13.728,5.952ZM8.864,7.456L8.224,6.816C7.872,6.464 7.872,5.888 8.224,5.536C8.576,5.184 9.152,5.184 9.504,5.536L10.144,6.176C10.496,6.528 10.496,7.104 10.144,7.456C9.952,7.616 9.728,7.712 9.504,7.712C9.28,7.712 9.056,7.616 8.864,7.456ZM6.816,11.936C6.304,11.936 5.92,11.52 5.92,11.04C5.92,10.56 6.336,10.144 6.816,10.144L7.744,10.144C8.256,10.144 8.64,10.56 8.64,11.04C8.64,11.52 8.256,11.936 7.744,11.936L6.816,11.936ZM17.952,7.712C17.728,7.712 17.504,7.616 17.312,7.456C16.96,7.104 16.96,6.528 17.312,6.176L17.952,5.536C18.304,5.184 18.88,5.184 19.232,5.536C19.584,5.888 19.584,6.464 19.232,6.816L18.592,7.456C18.4,7.616 18.176,7.712 17.952,7.712Z"/>
    </g>
</svg>
